assets/post/images/tree5.svg

<svg xmlns="http://www.w3.org/2000/svg" width="816" height="226" overflow="hidden"><defs><clipPath id="a"><path d="M367 252h816v226H367z"/></clipPath></defs><g clip-path="url(#a)" transform="translate(-367 -252)"><path fill="#fdefe8" fill-rule="evenodd" stroke="red" stroke-miterlimit="8" stroke-width="9.167" d="M371.5 365.5c0-43.631 35.37-79 79-79s79 35.369 79 79-35.37 79-79 79-79-35.37-79-79Z"/><text fill="red" font-family="Courier New,Courier New_MSFontService,sans-serif" font-size="83" font-weight="700" transform="translate(424.987 389)">x</text><path fill="#fdefe8" fill-rule="evenodd" stroke="#000" stroke-miterlimit="8" stroke-width="9.167" d="M1020.5 365.5c0-43.631 35.37-79 79-79s79 35.369 79 79-35.37 79-79 79-79-35.37-79-79Z"/><text font-family="Courier New,Courier New_MSFontService,sans-serif" font-size="83" font-weight="700" transform="translate(1074.76 389)">x</text><path fill="#d74514" fill-rule="evenodd" d="M684 308.5h90.5V252L865 365l-90.5 113v-56.5H684Z"/></g></svg>

<svg width="816" height="226" xmlns="http://www.w3.org/2000/svg" xmlns:xlink="http://www.w3.org/1999/xlink" overflow="hidden"><defs><clipPath id="clip0"><rect x="367" y="252" width="816" height="226"/></clipPath></defs><g clip-path="url(#clip0)" transform="translate(-367 -252)"><path d="M371.5 365.5C371.5 321.869 406.87 286.5 450.5 286.5 494.13 286.5 529.5 321.869 529.5 365.5 529.5 409.13 494.13 444.5 450.5 444.5 406.87 444.5 371.5 409.13 371.5 365.5Z" stroke="#FF0000" stroke-width="9.16667" stroke-miterlimit="8" fill="#FDEFE8" fill-rule="evenodd"/><text fill="#FF0000" font-family="Courier New,Courier New_MSFontService,sans-serif" font-weight="700" font-size="83" transform="matrix(1 0 0 1 424.987 389)">x</text><path d="M1020.5 365.5C1020.5 321.869 1055.87 286.5 1099.5 286.5 1143.13 286.5 1178.5 321.869 1178.5 365.5 1178.5 409.13 1143.13 444.5 1099.5 444.5 1055.87 444.5 1020.5 409.13 1020.5 365.5Z" stroke="#000000" stroke-width="9.16667" stroke-miterlimit="8" fill="#FDEFE8" fill-rule="evenodd"/><text font-family="Courier New,Courier New_MSFontService,sans-serif" font-weight="700" font-size="83" transform="matrix(1 0 0 1 1074.76 389)">x</text><path d="M684 308.5 774.5 308.5 774.5 252 865 365 774.5 478 774.5 421.5 684 421.5Z" fill="#D74514" fill-rule="evenodd"/></g></svg>
